X: 664
T: Rosey Doll
N: Pub: J. Walsh, London, 1748
Z: 2012 John Chambers <jc:trillian.mit.edu>
S: 4: ACMV  http://archive.org/details/acompositemusicv01rugg p.1:3
M: 6/8
L: 1/8
K: G
% - - - - - - - - - - - - - - - - - - - - - - - - -
V: 1
|: G>AB B2g | dcB A2B | G>AB B2g | DCB, TA,2G, :|\
|: g>ab d2B | g>ab c2A | g>ab e>fg | DCB, TA,2G, :|
% - - - - - - - - - - - - - - - - - - - - - - - - -
V: 2 clef=bass middle=d
|: g3 G3 | g3 d3 | g3 G3 | g3 d2G :|
|: g3 G3 | g3 d3 | g3 c3 | d3 D2G :|
% - - - - - - - - - - - - - - - - - - - - - - - - -
%%begintext align
%% The First and 2d. Cu. foot it and turn round Singls .|
%% The same back again :|
%% Right hands across .|.
%% Left hands across :|:
%% The 1st Cu. foot it to the 2d Wo. But not turn .||
%% The same to the 2d Man :||
%% Cross over one Cu. .||.
%% Right and left :||:
%%endtext
%%sep 1 8 500

%%sep 1 1 500
%%sep 1 1 500
